assets/start.svg

<svg width="1035" height="111" viewBox="0 0 1035 111" fill="none" xmlns="http://www.w3.org/2000/svg">
<g filter="url(#filter0_d_419:146)">
<path d="M28.1626 70.8374V99H0V14.5122H14.0813V0.430922H56.3252V14.5122H70.4065V99H42.2439V70.8374H28.1626ZM28.1626 14.5122V56.7561H42.2439V14.5122H28.1626ZM87.8673 0.430922H116.03V84.9187H144.192V99H87.8673V0.430922ZM203.897 56.7561V14.5122H189.816V56.7561H203.897ZM217.978 0.430922V14.5122H232.06V56.7561H217.978V70.8374H189.816V99H161.653V0.430922H217.978ZM277.683 70.8374V99H249.521V14.5122H263.602V0.430922H305.846V14.5122H319.927V99H291.764V70.8374H277.683ZM277.683 14.5122V56.7561H291.764V14.5122H277.683ZM351.469 0.430922H407.794V14.5122H365.55V84.9187H407.794V99H351.469V84.9187H337.388V14.5122H351.469V0.430922ZM453.418 70.8374V99H425.255V14.5122H439.336V0.430922H481.58V14.5122H495.662V99H467.499V70.8374H453.418ZM453.418 14.5122V56.7561H467.499V14.5122H453.418ZM555.366 84.9187V14.5122H541.285V84.9187H555.366ZM569.448 0.430922V14.5122H583.529V84.9187H569.448V99H513.122V0.430922H569.448ZM629.152 70.8374V99H600.99V14.5122H615.071V0.430922H657.315V14.5122H671.396V99H643.234V70.8374H629.152ZM629.152 14.5122V56.7561H643.234V14.5122H629.152ZM717.02 28.5935H731.101V14.5122H717.02V28.5935ZM731.101 42.6748H717.02V84.9187H731.101V42.6748ZM745.182 0.430922V14.5122H759.263V28.5935H745.182V42.6748H759.263V84.9187H745.182V99H688.857V0.430922H745.182ZM818.968 56.7561V14.5122H804.887V56.7561H818.968ZM847.131 84.9187V99H818.968V70.8374H804.887V99H776.724V0.430922H833.049V14.5122H847.131V56.7561H833.049V84.9187H847.131ZM892.754 70.8374V99H864.592V14.5122H878.673V0.430922H920.917V14.5122H934.998V99H906.836V70.8374H892.754ZM892.754 14.5122V56.7561H906.836V14.5122H892.754ZM1022.87 42.6748H1008.78V56.7561H994.703V70.8374H980.621V84.9187H1022.87V99H952.459V56.7561H966.54V42.6748H980.621V28.5935H994.703V14.5122H952.459V0.430922H1022.87V42.6748Z" fill="#FEC062"/>
</g>
<defs>
<filter id="filter0_d_419:146" x="0" y="0.430908" width="1034.13" height="109.834" filterUnits="userSpaceOnUse" color-interpolation-filters="sRGB">
<feFlood flood-opacity="0" result="BackgroundImageFix"/>
<feColorMatrix in="SourceAlpha" type="matrix" values="0 0 0 0 0 0 0 0 0 0 0 0 0 0 0 0 0 0 127 0" result="hardAlpha"/>
<feOffset dx="11.265" dy="11.265"/>
<feComposite in2="hardAlpha" operator="out"/>
<feColorMatrix type="matrix" values="0 0 0 0 0 0 0 0 0 0 0 0 0 0 0 0 0 0 1 0"/>
<feBlend mode="normal" in2="BackgroundImageFix" result="effect1_dropShadow_419:146"/>
<feBlend mode="normal" in="SourceGraphic" in2="effect1_dropShadow_419:146" result="shape"/>
</filter>
</defs>
</svg>

<?xml version="1.0" encoding="utf-8"?>
<!-- Generator: Adobe Illustrator 23.0.2, SVG Export Plug-In . SVG Version: 6.00 Build 0)  -->
<svg version="1.1" id="Layer_1" xmlns="http://www.w3.org/2000/svg" xmlns:xlink="http://www.w3.org/1999/xlink" x="0px" y="0px"
	 viewBox="0 0 1035 111" style="enable-background:new 0 0 1035 111;" xml:space="preserve">
<style type="text/css">
	.st0{fill:#FEC062;}
</style>
<g>
	<path class="st0" d="M28.2,70.8V99H0V14.5h14.1V0.4h42.2v14.1h14.1V99H42.2V70.8H28.2z M28.2,14.5v42.2h14.1V14.5H28.2z M87.9,0.4
		H116v84.5h28.2V99H87.9V0.4z M203.9,56.8V14.5h-14.1v42.2H203.9z M218,0.4v14.1h14.1v42.2H218v14.1h-28.2V99h-28.2V0.4H218z
		 M277.7,70.8V99h-28.2V14.5h14.1V0.4h42.2v14.1h14.1V99h-28.2V70.8H277.7z M277.7,14.5v42.2h14.1V14.5H277.7z M351.5,0.4h56.3v14.1
		h-42.2v70.4h42.2V99h-56.3V84.9h-14.1V14.5h14.1V0.4z M453.4,70.8V99h-28.2V14.5h14.1V0.4h42.2v14.1h14.1V99h-28.2V70.8H453.4z
		 M453.4,14.5v42.2h14.1V14.5H453.4z M555.4,84.9V14.5h-14.1v70.4H555.4z M569.4,0.4v14.1h14.1v70.4h-14.1V99h-56.3V0.4H569.4z
		 M629.2,70.8V99H601V14.5h14.1V0.4h42.2v14.1h14.1V99h-28.2V70.8H629.2z M629.2,14.5v42.2h14.1V14.5H629.2z M717,28.6h14.1V14.5
		H717V28.6z M731.1,42.7H717v42.2h14.1V42.7z M745.2,0.4v14.1h14.1v14.1h-14.1v14.1h14.1v42.2h-14.1V99h-56.3V0.4H745.2z M819,56.8
		V14.5h-14.1v42.2H819z M847.1,84.9V99H819V70.8h-14.1V99h-28.2V0.4H833v14.1h14.1v42.2H833v28.2H847.1z M892.8,70.8V99h-28.2V14.5
		h14.1V0.4h42.2v14.1H935V99h-28.2V70.8H892.8z M892.8,14.5v42.2h14.1V14.5H892.8z M1022.9,42.7h-14.1v14.1h-14.1v14.1h-14.1v14.1
		h42.2V99h-70.4V56.8h14.1V42.7h14.1V28.6h14.1V14.5h-42.2V0.4h70.4V42.7z"/>
</g>
</svg>
